icons/lines/personalcard.svg

<svg xmlns="http://www.w3.org/2000/svg" width="24" height="24" viewBox="0 0 24 24" fill="none" stroke="currentColor" stroke-width="2" stroke-linecap="round" stroke-linejoin="round" >
  <path d="M17 21H7C3 21 2 20 2 16V8C2 4 3 3 7 3H17C21 3 22 4 22 8V16C22 20 21 21 17 21Z"/>
  <path d="M14 8H19"/>
  <path d="M15 12H19"/>
  <path d="M17 16H19"/>
  <path d="M8.50043 11.29C9.50007 11.29 10.3104 10.4796 10.3104 9.48C10.3104 8.48036 9.50007 7.67 8.50043 7.67C7.50079 7.67 6.69043 8.48036 6.69043 9.48C6.69043 10.4796 7.50079 11.29 8.50043 11.29Z"/>
  <path d="M12 16.33C11.86 14.88 10.71 13.74 9.26 13.61C8.76 13.56 8.25 13.56 7.74 13.61C6.29 13.75 5.14 14.88 5 16.33"/>
  </svg>

<svg xmlns="http://www.w3.org/2000/svg" width="24" height="24" viewBox="0 0 24 24" fill="none" stroke="currentColor" stroke-width="2" stroke-linecap="round" stroke-linejoin="round">
  <path d="M12 16.33a3 3 0 0 0-2.74-2.72 7.7 7.7 0 0 0-1.52 0A3 3 0 0 0 5 16.33" />
  <path d="M14 8h5" />
  <path d="M15 12h4" />
  <path d="M17 16h2" />
  <path d="M7 21c-4 0-5-1-5-5V8c0-4 1-5 5-5h10c4 0 5 1 5 5v8c0 4-1 5-5 5z" />
  <circle cx="8.5" cy="9.48" r="1.81" />
</svg>
